Icons/com_paypal_android_p2pmobile.svg

<svg viewBox="0 0 48 48" xmlns:xlink="http://www.w3.org/1999/xlink">
 <defs>
  <linearGradient id="0">
   <stop stop-opacity="0"/>
   <stop offset="1"/>
  </linearGradient>
  <linearGradient xlink:href="#0" id="1" gradientUnits="userSpaceOnUse" gradientTransform="translate(4e-7,-48)" y1="47" x2="0" y2="1"/>
  <clipPath id="2">
   <g transform="translate(0,-1004.3622)">
    <rect rx="4" y="1005.36" x="1" height="46" width="46" fill="#1890d0"/>
   </g>
  </clipPath>
  <clipPath id="3">
   <g transform="translate(0,-1004.3622)">
    <rect rx="4" y="1005.36" x="1" height="46" width="46" fill="#1890d0"/>
   </g>
  </clipPath>
 </defs>
 <g>
  <g transform="translate(0,-1004.3622)">
   <path d="m 5,1006.3622 c -2.216,0 -4,1.784 -4,4 l 0,37.25 c 0,2.216 1.784,4 4,4 l 38,0 c 2.216,0 4,-1.784 4,-4 l 0,-37.25 c 0,-2.216 -1.784,-4 -4,-4 l -38,0 z m -4,41.5 0,0.5 c 0,2.216 1.784,4 4,4 l 38,0 c 2.216,0 4,-1.784 4,-4 l 0,-0.5 c 0,2.216 -1.784,4 -4,4 l -38,0 c -2.216,0 -4,-1.784 -4,-4 z" opacity="0.02"/>
   <path d="m 1,1047.6122 0,0.25 c 0,2.216 1.784,4 4,4 l 38,0 c 2.216,0 4,-1.784 4,-4 l 0,-0.25 c 0,2.216 -1.784,4 -4,4 l -38,0 c -2.216,0 -4,-1.784 -4,-4 z" opacity="0.05"/>
   <rect width="46" height="46" x="1" y="1005.61" rx="4" opacity="0.1"/>
  </g>
 </g>
 <g>
  <g transform="translate(0,-1004.3622)">
   <rect rx="4" y="1005.36" x="1" height="46" width="46" fill="#1c5484"/>
  </g>
 </g>
 <g>
  <rect transform="scale(1,-1)" width="46" height="46" x="1" y="-46.998" rx="4" opacity="0.1" fill="url(#1)"/>
 </g>
 <g>
  <g clip-path="url(#2)">
   <g opacity="0.1">
    <g>
     <path d="M 36.480469 16.121094 C 36.5625 16.609375 36.589844 17.125 36.589844 17.664062 C 36.589844 17.667969 36.589844 17.671875 36.589844 17.679688 C 36.589844 20.78125 35.230469 23.429688 32.664062 25.308594 C 30.082031 27.210938 26.5625 28.101562 22.160156 28.105469 L 21.152344 28.105469 C 20.84375 28.105469 20.390625 28.488281 20.332031 28.761719 L 20.332031 28.777344 L 19.121094 33.976562 C 18.851562 35.164062 17.800781 35.980469 16.59375 35.980469 L 13.558594 35.980469 C 13.570312 36.558594 14.019531 37.003906 14.648438 37 L 18.167969 36.988281 C 18.914062 36.992188 19.671875 36.398438 19.847656 35.667969 L 21.042969 30.457031 C 21.210938 29.726562 21.964844 29.117188 22.722656 29.125 L 23.730469 29.125 C 28.019531 29.125 31.34375 28.246094 33.726562 26.492188 C 36.105469 24.730469 37.300781 22.421875 37.300781 19.546875 C 37.292969 18.289062 37.078125 17.226562 36.628906 16.386719 C 36.582031 16.296875 36.535156 16.207031 36.480469 16.121094 Z M 23.863281 16.320312 C 23.574219 16.316406 23.105469 16.699219 23.046875 16.980469 L 23.03125 16.992188 L 21.984375 21.535156 C 21.949219 21.683594 21.988281 21.722656 22.011719 21.75 C 22.035156 21.777344 22.0625 21.816406 22.210938 21.816406 L 23.03125 21.816406 L 23.757812 18.660156 C 23.914062 17.9375 24.679688 17.335938 25.421875 17.34375 L 26.578125 17.328125 C 27.148438 17.332031 27.648438 17.367188 28.097656 17.449219 C 27.996094 17.199219 27.832031 17.019531 27.585938 16.859375 C 27.117188 16.546875 26.261719 16.320312 25.019531 16.320312 Z M 23.863281 16.320312 "/>
     <path d="M 35.0625 14.511719 C 34.625 13.664062 33.972656 12.972656 33.140625 12.453125 C 32.273438 11.917969 31.269531 11.550781 30.097656 11.328125 C 28.917969 11.117188 27.542969 11.015625 25.960938 11 L 18.648438 11.003906 C 17.886719 11.015625 17.140625 11.609375 16.96875 12.339844 L 12.035156 33.785156 C 11.863281 34.515625 12.339844 35.125 13.097656 35.125 L 16.601562 35.125 C 17.359375 35.125 18.109375 34.53125 18.28125 33.785156 L 19.488281 28.578125 C 19.648438 27.851562 20.398438 27.25 21.15625 27.25 L 22.160156 27.25 C 26.445312 27.246094 29.769531 26.371094 32.15625 24.613281 C 34.542969 22.863281 35.734375 20.542969 35.730469 17.671875 C 35.734375 16.410156 35.515625 15.355469 35.0625 14.511719 M 27.496094 21.519531 C 26.4375 22.289062 24.972656 22.679688 23.074219 22.679688 L 22.214844 22.679688 C 21.457031 22.679688 20.980469 22.078125 21.144531 21.339844 L 22.199219 16.792969 C 22.359375 16.0625 23.117188 15.453125 23.875 15.460938 L 25.019531 15.453125 C 26.359375 15.453125 27.378906 15.683594 28.066406 16.140625 C 28.742188 16.582031 29.085938 17.285156 29.074219 18.226562 C 29.09375 19.644531 28.554688 20.742188 27.496094 21.519531 "/>
    </g>
   </g>
  </g>
 </g>
 <g>
  <g clip-path="url(#3)">
   <g transform="translate(0,-1)">
    <g>
     <path d="M 36.480469 16.121094 C 36.5625 16.609375 36.589844 17.125 36.589844 17.664062 C 36.589844 17.667969 36.589844 17.671875 36.589844 17.679688 C 36.589844 20.78125 35.230469 23.429688 32.664062 25.308594 C 30.082031 27.210938 26.5625 28.101562 22.160156 28.105469 L 21.152344 28.105469 C 20.84375 28.105469 20.390625 28.488281 20.332031 28.761719 L 20.332031 28.777344 L 19.121094 33.976562 C 18.851562 35.164062 17.800781 35.980469 16.59375 35.980469 L 13.558594 35.980469 C 13.570312 36.558594 14.019531 37.003906 14.648438 37 L 18.167969 36.988281 C 18.914062 36.992188 19.671875 36.398438 19.847656 35.667969 L 21.042969 30.457031 C 21.210938 29.726562 21.964844 29.117188 22.722656 29.125 L 23.730469 29.125 C 28.019531 29.125 31.34375 28.246094 33.726562 26.492188 C 36.105469 24.730469 37.300781 22.421875 37.300781 19.546875 C 37.292969 18.289062 37.078125 17.226562 36.628906 16.386719 C 36.582031 16.296875 36.535156 16.207031 36.480469 16.121094 Z M 23.863281 16.320312 C 23.574219 16.316406 23.105469 16.699219 23.046875 16.980469 L 23.03125 16.992188 L 21.984375 21.535156 C 21.949219 21.683594 21.988281 21.722656 22.011719 21.75 C 22.035156 21.777344 22.0625 21.816406 22.210938 21.816406 L 23.03125 21.816406 L 23.757812 18.660156 C 23.914062 17.9375 24.679688 17.335938 25.421875 17.34375 L 26.578125 17.328125 C 27.148438 17.332031 27.648438 17.367188 28.097656 17.449219 C 27.996094 17.199219 27.832031 17.019531 27.585938 16.859375 C 27.117188 16.546875 26.261719 16.320312 25.019531 16.320312 Z M 23.863281 16.320312 " fill="#9cc7e5"/>
     <path d="M 35.0625 14.511719 C 34.625 13.664062 33.972656 12.972656 33.140625 12.453125 C 32.273438 11.917969 31.269531 11.550781 30.097656 11.328125 C 28.917969 11.117188 27.542969 11.015625 25.960938 11 L 18.648438 11.003906 C 17.886719 11.015625 17.140625 11.609375 16.96875 12.339844 L 12.035156 33.785156 C 11.863281 34.515625 12.339844 35.125 13.097656 35.125 L 16.601562 35.125 C 17.359375 35.125 18.109375 34.53125 18.28125 33.785156 L 19.488281 28.578125 C 19.648438 27.851562 20.398438 27.25 21.15625 27.25 L 22.160156 27.25 C 26.445312 27.246094 29.769531 26.371094 32.15625 24.613281 C 34.542969 22.863281 35.734375 20.542969 35.730469 17.671875 C 35.734375 16.410156 35.515625 15.355469 35.0625 14.511719 M 27.496094 21.519531 C 26.4375 22.289062 24.972656 22.679688 23.074219 22.679688 L 22.214844 22.679688 C 21.457031 22.679688 20.980469 22.078125 21.144531 21.339844 L 22.199219 16.792969 C 22.359375 16.0625 23.117188 15.453125 23.875 15.460938 L 25.019531 15.453125 C 26.359375 15.453125 27.378906 15.683594 28.066406 16.140625 C 28.742188 16.582031 29.085938 17.285156 29.074219 18.226562 C 29.09375 19.644531 28.554688 20.742188 27.496094 21.519531 " fill="#f9f9f9"/>
    </g>
   </g>
  </g>
 </g>
 <g>
  <g transform="translate(0,-1004.3622)">
   <path d="m 1,1043.3622 0,4 c 0,2.216 1.784,4 4,4 l 38,0 c 2.216,0 4,-1.784 4,-4 l 0,-4 c 0,2.216 -1.784,4 -4,4 l -38,0 c -2.216,0 -4,-1.784 -4,-4 z" opacity="0.1"/>
  </g>
 </g>
</svg>

<svg viewBox="0 0 48 48"><defs><linearGradient id="linearGradient3764" x1="1" x2="47" gradientUnits="userSpaceOnUse" gradientTransform="translate(-48.000001,0.00221467)"><stop stop-color="#184a74" stop-opacity="1"/><stop offset="1" stop-color="#1c5484" stop-opacity="1"/></linearGradient><clipPath id="clipPath-022387956"><g transform="translate(0,-1004.3622)"><rect rx="4" y="1005.36" x="1" height="46" width="46" fill="#1890d0"/></g></clipPath><clipPath id="clipPath-035801256"><g transform="translate(0,-1004.3622)"><rect rx="4" y="1005.36" x="1" height="46" width="46" fill="#1890d0"/></g></clipPath></defs><g><path d="m 1 43 l 0 0.25 c 0 2.216 1.784 4 4 4 l 38 0 c 2.216 0 4 -1.784 4 -4 l 0 -0.25 c 0 2.216 -1.784 4 -4 4 l -38 0 c -2.216 0 -4 -1.784 -4 -4 z m 0 0.5 l 0 0.5 c 0 2.216 1.784 4 4 4 l 38 0 c 2.216 0 4 -1.784 4 -4 l 0 -0.5 c 0 2.216 -1.784 4 -4 4 l -38 0 c -2.216 0 -4 -1.784 -4 -4 z" opacity="0.02"/><path d="m 1 43.25 l 0 0.25 c 0 2.216 1.784 4 4 4 l 38 0 c 2.216 0 4 -1.784 4 -4 l 0 -0.25 c 0 2.216 -1.784 4 -4 4 l -38 0 c -2.216 0 -4 -1.784 -4 -4 z" opacity="0.05"/><path d="m 1 43 l 0 0.25 c 0 2.216 1.784 4 4 4 l 38 0 c 2.216 0 4 -1.784 4 -4 l 0 -0.25 c 0 2.216 -1.784 4 -4 4 l -38 0 c -2.216 0 -4 -1.784 -4 -4 z" opacity="0.1"/></g><g><rect width="46" height="46" x="-47" y="1" rx="4" transform="matrix(0,-1,1,0,0,0)" fill="url(#linearGradient3764)" fill-opacity="1"/></g><g><g clip-path="url(#clipPath-022387956)"><g opacity="0.1"><!-- color: #1c5484 --><g><path d="m 36.48 16.12 c 0.082 0.488 0.109 1 0.109 1.543 c 0 0.004 0 0.008 0 0.016 c 0 3.102 -1.359 5.75 -3.926 7.629 c -2.582 1.902 -6.102 2.793 -10.504 2.797 l -1.01 0 c -0.309 0 -0.762 0.383 -0.82 0.656 l 0 0.016 l -1.211 5.199 c -0.27 1.188 -1.32 2 -2.527 2 l -3.035 0 c 0.012 0.578 0.461 1.023 1.09 1.02 l 3.52 -0.012 c 0.746 0.004 1.504 -0.59 1.68 -1.32 l 1.195 -5.211 c 0.168 -0.73 0.922 -1.34 1.68 -1.332 l 1.01 0 c 4.289 0 7.613 -0.879 9.996 -2.633 c 2.379 -1.762 3.574 -4.07 3.574 -6.945 c -0.008 -1.258 -0.223 -2.32 -0.672 -3.16 c -0.047 -0.09 -0.094 -0.18 -0.148 -0.266 m -12.617 0.199 c -0.289 -0.004 -0.758 0.379 -0.816 0.66 l -0.016 0.012 l -1.047 4.543 c -0.035 0.148 0.004 0.188 0.027 0.215 c 0.023 0.027 0.051 0.066 0.199 0.066 l 0.82 0 l 0.727 -3.156 c 0.156 -0.723 0.922 -1.324 1.664 -1.316 l 1.156 -0.016 c 0.57 0.004 1.07 0.039 1.52 0.121 c -0.102 -0.25 -0.266 -0.43 -0.512 -0.59 c -0.469 -0.313 -1.324 -0.539 -2.566 -0.539 m -1.156 0" fill="#000"/><path d="m 35.06 14.512 c -0.438 -0.848 -1.09 -1.539 -1.922 -2.059 c -0.867 -0.535 -1.871 -0.902 -3.043 -1.125 c -1.18 -0.211 -2.555 -0.313 -4.137 -0.328 l -7.313 0.004 c -0.762 0.012 -1.508 0.605 -1.68 1.336 l -4.934 21.445 c -0.172 0.73 0.305 1.34 1.063 1.34 l 3.504 0 c 0.758 0 1.508 -0.594 1.68 -1.34 l 1.207 -5.207 c 0.16 -0.727 0.91 -1.328 1.668 -1.328 l 1 0 c 4.285 -0.004 7.609 -0.879 9.996 -2.637 c 2.387 -1.75 3.578 -4.07 3.574 -6.941 c 0.004 -1.262 -0.215 -2.316 -0.668 -3.16 m -7.566 7.01 c -1.059 0.77 -2.523 1.16 -4.422 1.16 l -0.859 0 c -0.758 0 -1.234 -0.602 -1.07 -1.34 l 1.055 -4.547 c 0.16 -0.73 0.918 -1.34 1.676 -1.332 l 1.145 -0.008 c 1.34 0 2.359 0.23 3.047 0.688 c 0.676 0.441 1.02 1.145 1.01 2.086 c 0.02 1.418 -0.52 2.516 -1.578 3.293" fill="#000"/></g></g></g></g><g><g clip-path="url(#clipPath-035801256)"><g transform="translate(0,-1)"><!-- color: #1c5484 --><g><path d="m 36.48 16.12 c 0.082 0.488 0.109 1 0.109 1.543 c 0 0.004 0 0.008 0 0.016 c 0 3.102 -1.359 5.75 -3.926 7.629 c -2.582 1.902 -6.102 2.793 -10.504 2.797 l -1.01 0 c -0.309 0 -0.762 0.383 -0.82 0.656 l 0 0.016 l -1.211 5.199 c -0.27 1.188 -1.32 2 -2.527 2 l -3.035 0 c 0.012 0.578 0.461 1.023 1.09 1.02 l 3.52 -0.012 c 0.746 0.004 1.504 -0.59 1.68 -1.32 l 1.195 -5.211 c 0.168 -0.73 0.922 -1.34 1.68 -1.332 l 1.01 0 c 4.289 0 7.613 -0.879 9.996 -2.633 c 2.379 -1.762 3.574 -4.07 3.574 -6.945 c -0.008 -1.258 -0.223 -2.32 -0.672 -3.16 c -0.047 -0.09 -0.094 -0.18 -0.148 -0.266 m -12.617 0.199 c -0.289 -0.004 -0.758 0.379 -0.816 0.66 l -0.016 0.012 l -1.047 4.543 c -0.035 0.148 0.004 0.188 0.027 0.215 c 0.023 0.027 0.051 0.066 0.199 0.066 l 0.82 0 l 0.727 -3.156 c 0.156 -0.723 0.922 -1.324 1.664 -1.316 l 1.156 -0.016 c 0.57 0.004 1.07 0.039 1.52 0.121 c -0.102 -0.25 -0.266 -0.43 -0.512 -0.59 c -0.469 -0.313 -1.324 -0.539 -2.566 -0.539 m -1.156 0" fill="#9cc7e5"/><path d="m 35.06 14.512 c -0.438 -0.848 -1.09 -1.539 -1.922 -2.059 c -0.867 -0.535 -1.871 -0.902 -3.043 -1.125 c -1.18 -0.211 -2.555 -0.313 -4.137 -0.328 l -7.313 0.004 c -0.762 0.012 -1.508 0.605 -1.68 1.336 l -4.934 21.445 c -0.172 0.73 0.305 1.34 1.063 1.34 l 3.504 0 c 0.758 0 1.508 -0.594 1.68 -1.34 l 1.207 -5.207 c 0.16 -0.727 0.91 -1.328 1.668 -1.328 l 1 0 c 4.285 -0.004 7.609 -0.879 9.996 -2.637 c 2.387 -1.75 3.578 -4.07 3.574 -6.941 c 0.004 -1.262 -0.215 -2.316 -0.668 -3.16 m -7.566 7.01 c -1.059 0.77 -2.523 1.16 -4.422 1.16 l -0.859 0 c -0.758 0 -1.234 -0.602 -1.07 -1.34 l 1.055 -4.547 c 0.16 -0.73 0.918 -1.34 1.676 -1.332 l 1.145 -0.008 c 1.34 0 2.359 0.23 3.047 0.688 c 0.676 0.441 1.02 1.145 1.01 2.086 c 0.02 1.418 -0.52 2.516 -1.578 3.293" fill="#f9f9f9"/></g></g></g></g><g><g transform="translate(0,-1004.3622)"><path d="m 1 1043.36 0 4 c 0 2.216 1.784 4 4 4 l 38 0 c 2.216 0 4 -1.784 4 -4 l 0 -4 c 0 2.216 -1.784 4 -4 4 l -38 0 c -2.216 0 -4 -1.784 -4 -4 z" opacity="0.1"/></g></g></svg>
